X:44
T:Sweet Home. JaW.044
M:C
L:1/8
Q:1/2=90
S:James Winder Ms, Lancashire, 1835-41
R:.Air
O:England
A:Wyresdale,Lancashire
Z:vmp.Chris Partington, Aug 2004
K:G
(G>A)B4|c2c2d4|B2d2c2B2|c2A2B4|!
G3A B4|c3c d4|B2d2 (c2B2)|c2A2G4:|!
|:z2d2g4|f2e2d4|B2d2c4|c2A2B4|!
z2d2g4|f2e2d4|”qu’s”B2d2c2B2|(c2A2)G4|” As Writ”B4c4|d4B4|!
A4-A4| z2d2g4|f2e2e4|B2d2e4|c2A2G4|]

